assets/features/global-acquiring/qr-anim-default.svg

<svg width="104" height="104" viewBox="0 0 104 104" fill="none" xmlns="http://www.w3.org/2000/svg">
<g filter="url(#filter0_d_1058_4434)">
<rect x="12" y="4" width="80" height="80" rx="20" fill="white"/>
<path d="M32 41.1429H49.1429V24H32V41.1429ZM37.7143 29.7143H43.4286V35.4286H37.7143V29.7143ZM54.8571 24V41.1429H72V24H54.8571ZM66.2857 35.4286H60.5714V29.7143H66.2857V35.4286ZM32 64H49.1429V46.8571H32V64ZM37.7143 52.5714H43.4286V58.2857H37.7143V52.5714Z" fill="#7A49E9"/>
<path d="M71.9999 46.8571H69.1428V49.7142H63.4285V46.8571H54.8571V63.9999H60.5713V55.4285H63.4285V58.2856H71.9999V46.8571Z" fill="#7CD0E8"/>
<path d="M71.9999 61.1428H69.1428V63.9999H71.9999V61.1428Z" fill="#7CD0E8"/>
<path d="M66.2856 61.1428H63.4285V63.9999H66.2856V61.1428Z" fill="#7CD0E8"/>
</g>
<defs>
<filter id="filter0_d_1058_4434" x="0" y="0" width="104" height="104" filterUnits="userSpaceOnUse" color-interpolation-filters="sRGB">
<feFlood flood-opacity="0" result="BackgroundImageFix"/>
<feColorMatrix in="SourceAlpha" type="matrix" values="0 0 0 0 0 0 0 0 0 0 0 0 0 0 0 0 0 0 127 0" result="hardAlpha"/>
<feOffset dy="8"/>
<feGaussianBlur stdDeviation="6"/>
<feComposite in2="hardAlpha" operator="out"/>
<feColorMatrix type="matrix" values="0 0 0 0 0.586538 0 0 0 0 0.586538 0 0 0 0 0.586538 0 0 0 0.25 0"/>
<feBlend mode="normal" in2="BackgroundImageFix" result="effect1_dropShadow_1058_4434"/>
<feBlend mode="normal" in="SourceGraphic" in2="effect1_dropShadow_1058_4434" result="shape"/>
</filter>
</defs>
</svg>

<svg xmlns="http://www.w3.org/2000/svg" width="104" height="104" fill="none" viewBox="0 0 104 104"><g filter="url(#a)"><rect width="80" height="80" x="12" y="4" fill="#fff" rx="20"/><path fill="#7a49e9" d="M32 41.143h17.143V24H32zm5.714-11.429h5.715v5.715h-5.715zM54.857 24v17.143H72V24zm11.429 11.429H60.57v-5.715h5.715zM32 64h17.143V46.857H32zm5.714-11.429h5.715v5.715h-5.715z"/><path fill="#7cd0e8" d="M72 46.857h-2.857v2.857h-5.715v-2.857h-8.57V64h5.713v-8.571h2.858v2.857h8.57zm0 14.286h-2.857V64H72z"/><path fill="#7cd0e8" d="M66.286 61.143h-2.858V64h2.858z"/></g><defs><filter id="a" width="104" height="104" x="0" y="0" color-interpolation-filters="sRGB" filterUnits="userSpaceOnUse"><feFlood flood-opacity="0" result="BackgroundImageFix"/><feColorMatrix in="SourceAlpha" result="hardAlpha" values="0 0 0 0 0 0 0 0 0 0 0 0 0 0 0 0 0 0 127 0"/><feOffset dy="8"/><feGaussianBlur stdDeviation="6"/><feComposite in2="hardAlpha" operator="out"/><feColorMatrix values="0 0 0 0 0.586538 0 0 0 0 0.586538 0 0 0 0 0.586538 0 0 0 0.25 0"/><feBlend in2="BackgroundImageFix" result="effect1_dropShadow_1058_4434"/><feBlend in="SourceGraphic" in2="effect1_dropShadow_1058_4434" result="shape"/></filter></defs></svg>
